material/.icons/material/paw-off.svg

<svg xmlns="http://www.w3.org/2000/svg" viewBox="0 0 24 24"><path d="M2 4.27L3.28 3 21.5 21.22l-1.27 1.28-2-2c-.14.1-.29.18-.44.25-1.79.82-3.91-.88-5.9-.88-1.99 0-4.13 1.77-5.89.88-1-.49-1.69-1.79-1.56-2.87.18-1.49 1.97-2.29 3.03-3.38.74-.73 1.37-1.81 2.08-2.68L2 4.27M8.35 3c1.18-.17 2.43 1.12 2.79 2.9.18.85.12 1.66-.14 2.29L7.03 4.2c.26-.65.72-1.1 1.32-1.2m7.15 0c1.19.19 1.85 1.77 1.5 3.54-.38 1.78-1.63 3.07-2.81 2.89-1.19-.18-1.84-1.76-1.47-3.53.36-1.78 1.61-3.07 2.78-2.9M3 7.6c1.14-.49 2.69.4 3.5 1.95.76 1.58.5 3.24-.63 3.73-1.13.49-2.67-.39-3.46-1.96C1.62 9.75 1.9 8.08 3 7.6m18 0c1.1.48 1.38 2.15.59 3.72-.79 1.57-2.33 2.45-3.46 1.96-1.13-.49-1.39-2.15-.63-3.73C18.31 8 19.86 7.11 21 7.6z"/></svg>

<?xml version="1.0" encoding="UTF-8"?><!DOCTYPE svg PUBLIC "-//W3C//DTD SVG 1.1//EN" "http://www.w3.org/Graphics/SVG/1.1/DTD/svg11.dtd"><svg xmlns="http://www.w3.org/2000/svg" xmlns:xlink="http://www.w3.org/1999/xlink" version="1.1" id="mdi-paw-off" width="24" height="24" viewBox="0 0 24 24"><path d="M2,4.27L3.28,3L21.5,21.22L20.23,22.5L18.23,20.5C18.09,20.6 17.94,20.68 17.79,20.75C16,21.57 13.88,19.87 11.89,19.87C9.9,19.87 7.76,21.64 6,20.75C5,20.26 4.31,18.96 4.44,17.88C4.62,16.39 6.41,15.59 7.47,14.5C8.21,13.77 8.84,12.69 9.55,11.82L2,4.27M8.35,3C9.53,2.83 10.78,4.12 11.14,5.9C11.32,6.75 11.26,7.56 11,8.19L7.03,4.2C7.29,3.55 7.75,3.1 8.35,3M15.5,3C16.69,3.19 17.35,4.77 17,6.54C16.62,8.32 15.37,9.61 14.19,9.43C13,9.25 12.35,7.67 12.72,5.9C13.08,4.12 14.33,2.83 15.5,3M3,7.6C4.14,7.11 5.69,8 6.5,9.55C7.26,11.13 7,12.79 5.87,13.28C4.74,13.77 3.2,12.89 2.41,11.32C1.62,9.75 1.9,8.08 3,7.6M21,7.6C22.1,8.08 22.38,9.75 21.59,11.32C20.8,12.89 19.26,13.77 18.13,13.28C17,12.79 16.74,11.13 17.5,9.55C18.31,8 19.86,7.11 21,7.6Z" /></svg>
